!!!COM: Anonymous
!!!CDT: [?]
!!!OTL: Nieba Królowa
!!!TXO: Polish
!!!ODT: 
!!!GTL: Hymnbook E
!!!ARL: Opactwo św. Wojciecha, Staniątki 
!!!voices:	3
**kern	**kern	**text	**kern	**text
*staff3	*staff2	*staff2	*staff1	*staff1
*I"Basso	*I"Canto II	*	*I"Canto I	*
=1-	=1-	=1-	=1-	=1-
*clefF4	*clefG2	*	*clefG2	*
*k[f#c#]	*k[f#c#]	*	*k[f#c#]	*
*met(c|)	*met(c|)	*	*met(c|)	*
*M2/2	*M2/2	*	*M2/2	*
4D	4dd	Nie-	4ff#	Nie-
8AAL	8cc#	-ba	8ee	-ba
8AAJ	8dd	Kr&oacute;-	8ff#	Kr&oacute;-
4BB	4b	-lo-	4dd	-lo-
4F#	4a	-wa	4cc#	-wa
=2	=2	=2	=2	=2
4.G	4.g	Ma-	4.b	Ma-
8F#	8a	-ry-	8cc#	-ry-
4E	8bL	-ja	8ddL	-ja
.	8cc#J	.	8eeJ	.
4D	4dd	wy-	4ff#	wy-
=3	=3	=3	=3	=3
4A	4dd	-bra-	2ee	-bra-
4AA	4cc#	.	.	.
2D	2dd	-na	2dd	-na
=4	=4	=4	=4	=4
8r	8r	.	8r	.
8DL	8f#	dwu-	8a	dwu-
8C#	8g	-na-	8b	-na-
8C#J	8a#	-stą	8cc#	-stą
4BB	4b	god-	4dd	god-
4F#	4a#	-nie	4cc#	-nie
=5	=5	=5	=5	=5
4.G	4.g	u-	4.b	u-
8D	8f#	-ko-	8a	-ko-
4E	4e	-ro-	4g	-ro-
8F#L	4d	-no-	4f#	-no-
8GJ	.	.	.	.
=6	=6	=6	=6	=6
4A	4d	-wa-	2e	-wa-
4AA	4c#	.	.	.
2D	2d	-na	2d	-na
=7||	=7||	=7||	=7||	=7||
8r	8r	.	8r	.
8DL	8f#	Haf-	8a	Haf-
8BB	8b	-to-	8dd	-to-
8C#J	8a	-wa-	8cc#	-wa-
4E	4g#	-ne-	4b	-ne-
4E	4g#	-mi	4b	-mi
=8	=8	=8	=8	=8
4.AA	4.a	do-	4.cc#	do-
8AA	8cc#	-ko-	8ee	-ko-
4D	8ddL	-ła	8ff#L	-ła
.	8cc#J	.	8eeJ	.
4D	8bL	gwiaz-	8ddL	gwiaz-
.	8aJ	.	8cc#J	.
=9	=9	=9	=9	=9
2E	4a	-da-	2b	-da-
.	4g#	.	.	.
2AA	2a	-mi	2a	-mi
=10	=10	=10	=10	=10
4r	4r	.	4r	.
4D	4f#	ja-	4a	ja-
4.GG	8gL	-ko	8bL	-ko
.	8f#J	.	8aJ	.
.	8eL	per-	8gL	per-
8D	8dJ	.	8f#J	.
=11	=11	=11	=11	=11
2AA	4d	-ła-	8eL	-ła-
.	.	.	16f#L	.
.	.	.	16gJJ	.
.	4c#	.	8.f#L	.
.	.	.	16eJk	.
2D	2d	-mi.	2d	-mi.
==	==	==	==	==
*-	*-	*-	*-	*-
!!!GTL: Hymnbook E
!!!EFL: 96/117
!!!YEM: Creative Commons CC/BY/NC/SA 4.0
!!!ENC: Marcin Konik
!!!END: 
!!!EED: Marcin Konik
!!!EEV: 
!!!ONB: Translated from MusicXML and edited by Marcin Konik
!!!CharacterEncoding: utf-8
!!!RDF**kern: l=long note in original notation
!!!RDF**kern: i=editorial accidental
!!muse2ps: z14jc180F
